X: 1
T: If I Was A Blackbird
M: 3/4
L: 1/8
R: waltz
S: "pete" <pete:wintonpottery.co.uk> tradtunes 2009-4-25
K: D
z D \
|: B4  ^AB | D2  G2 A2 | B  e3 d2 | A4 Dd \
| d2 c2 d2 | e2 =c2 A2 | D =c3 B2 | A4 DD |
| B3 ^A B2 | D2  G2 A2 | B  e3 d2 | A4 DD \
| d3  c d2 | e2 =c2 A2 | D2 B2 A2 | G4 D2 :|
